X: 1
T: Laughing Wolf, The
M: 4/4
L: 1/8
R: hornpipe
K: Dmaj
|:e2|eA AB AG EF|GA GE DE GA|eA AB AG EF|GA GE D2:|
cd|:ea af gf ed|ef ed gB-Bg|ea af gf ed|1ef ed ga/g/ fg:|2(3=cBA BG A2|
